X: 1
T: The Flying Wheelchair
R: jig
M: 6/8
L: 1/8
K: Gmaj
~G3 GED|~E3 AB/c/d|efg edB|Age dBA|
~G3 GED|~E3 AB/c/d|efg edB|ABG EFD:|
|:GAB ~d3|deB dBA|GAE ~e3|efg edB|
GB/c/d efg|eaf g2b|age dBG|ABG EFD:|


Tune 4185	Setting 16941

